icons/core/user-check.svg

<svg width="32" height="32" viewBox="0 0 32 32" xmlns="http://www.w3.org/2000/svg"><path fill-rule="evenodd" clip-rule="evenodd" d="M11.9998 3.99988C9.23833 3.99988 6.99976 6.23845 6.99976 8.99988C6.99976 11.7613 9.23833 13.9999 11.9998 13.9999C14.7612 13.9999 16.9998 11.7613 16.9998 8.99988C16.9998 6.23845 14.7612 3.99988 11.9998 3.99988ZM4.99976 8.99988C4.99976 5.13388 8.13376 1.99988 11.9998 1.99988C15.8657 1.99988 18.9998 5.13388 18.9998 8.99988C18.9998 12.8659 15.8657 15.9999 11.9998 15.9999C8.13376 15.9999 4.99976 12.8659 4.99976 8.99988ZM1.99976 23.9999C1.99976 20.6862 4.68605 17.9999 7.99976 17.9999H15.9998C19.3135 17.9999 21.9998 20.6862 21.9998 23.9999V29.9999H19.9998V23.9999C19.9998 21.7907 18.2089 19.9999 15.9998 19.9999H7.99976C5.79062 19.9999 3.99976 21.7907 3.99976 23.9999V29.9999H1.99976V23.9999ZM25.7072 18.2071L31.7072 12.2071L30.293 10.7929L25.0001 16.0858L22.2072 13.2929L20.793 14.7071L24.293 18.2071L25.0001 18.9142L25.7072 18.2071Z"/></svg>

<svg viewBox="0 0 32 32" xmlns="http://www.w3.org/2000/svg"><path fill-rule="evenodd" d="M12 4a5 5 0 100 10 5 5 0 000-10zM5 9a7 7 0 1114 0A7 7 0 015 9zM2 24a6 6 0 016-6h8a6 6 0 016 6v6h-2v-6a4 4 0 00-4-4H8a4 4 0 00-4 4v6H2v-6zm23.707-5.793l6-6-1.414-1.414L25 16.086l-2.793-2.793-1.414 1.414 3.5 3.5.707.707.707-.707z"/></svg>
